src/img/custom-icons/quote.svg

<svg id="Layer_1" data-name="Layer 1" xmlns="http://www.w3.org/2000/svg" viewBox="0 0 61.67 46.25"><defs><style>.cls-1{fill:#14315d}</style></defs><path class="cls-1" d="M0 27h11.14L7.28 46.25h15.5l4.16-20.81L27 0H0zM3.85 3.85h19.27v21l-3.5 17.55H12l3.85-19.28h-12zM34.69 0v27h11.14L42 46.25h15.46l4.17-20.81L61.67 0zm23.12 24.86l-3.5 17.54h-7.64l3.86-19.28h-12V3.85h19.28z"/></svg>

<svg id="Layer_1" data-name="Layer 1" xmlns="http://www.w3.org/2000/svg" viewBox="0 0 61.67 46.25"><defs><style>.cls-1{fill:#14315d;}</style></defs><title>quote</title><path class="cls-1" d="M0,27H11.14L7.28,46.25h15.5l4.16-20.81L27,0H0ZM3.85,3.85H23.12v21L19.62,42.4H12l3.85-19.28h-12Z"/><path class="cls-1" d="M34.69,0V27H45.83L42,46.25H57.46l4.17-20.81L61.67,0ZM57.81,24.86,54.31,42.4H46.67l3.86-19.28h-12V3.85H57.81Z"/></svg>
